lib/brands/icons/notion.svg

<svg xmlns="http://www.w3.org/2000/svg" fill="none" aria-hidden="true" viewBox="0 0 48 48"><g id="notion-Icon"><path id="Logo" fill="#1E2226" fill-rule="evenodd" d="M29.1522 6.0821L9.1725 7.55233C7.56144 7.69175 7 8.742 7 10.0011V31.838C7 32.8191 7.34997 33.6576 8.19156 34.7784L12.8882 40.8676C13.6597 41.8481 14.3608 42.0579 15.8339 41.9876L39.0363 40.5876C40.9987 40.4483 41.56 39.5377 41.56 37.9981V13.4309C41.56 12.6351 41.2448 12.4052 40.3158 11.7274C40.2647 11.6901 40.2117 11.6515 40.1569 11.6113L33.7791 7.13206C32.237 6.01267 31.6057 5.87182 29.1522 6.0821ZM16.36 13.028C14.4657 13.1558 14.0353 13.1849 12.9595 12.3116L10.2238 10.1419C9.94483 9.86137 10.0848 9.51139 10.7853 9.44198L29.9935 8.04202C31.6055 7.90174 32.4465 8.46258 33.0777 8.95228L36.3723 11.3322C36.5125 11.4019 36.8624 11.8213 36.4417 11.8213L16.6046 13.0116L16.36 13.028ZM14.1505 37.7877V16.9311C14.1505 16.0214 14.4309 15.6012 15.2716 15.5306L38.0539 14.2012C38.8266 14.1312 39.1765 14.6215 39.1765 15.5306V36.2472C39.1765 37.1577 39.036 37.9287 37.7737 37.9981L15.9727 39.2586C14.7111 39.3279 14.1505 38.9086 14.1505 37.7877ZM35.6723 18.0499C35.8121 18.6805 35.6723 19.3104 35.0402 19.3813L33.9897 19.5904V34.9881C33.0777 35.4779 32.2367 35.7579 31.5359 35.7579C30.4139 35.7579 30.1329 35.4077 29.2925 34.3584L22.4216 23.58V34.0084L24.5958 34.4987C24.5958 34.4987 24.5958 35.7579 22.8416 35.7579L18.0059 36.0382C17.8654 35.7579 18.0059 35.0586 18.4964 34.9185L19.7583 34.569V20.7807L18.0061 20.6404C17.8657 20.0099 18.2156 19.1007 19.1977 19.0302L24.3854 18.6807L31.5359 29.5995V19.9404L29.7128 19.7313C29.5729 18.9605 30.1329 18.4008 30.834 18.3313L35.6723 18.0499Z" clip-rule="evenodd"/></g></svg>

<svg xmlns="http://www.w3.org/2000/svg" fill="none" aria-hidden="true" viewBox="0 0 48 48"><path fill="#1E2226" fill-rule="evenodd" d="m29.152 6.082-19.98 1.47C7.562 7.692 7 8.742 7 10.002v21.836c0 .981.35 1.82 1.192 2.94l4.696 6.09c.772.98 1.473 1.19 2.946 1.12l23.202-1.4c1.963-.14 2.524-1.05 2.524-2.59V13.431c0-.796-.315-1.026-1.244-1.704l-.16-.116-6.377-4.479c-1.542-1.12-2.173-1.26-4.627-1.05ZM16.36 13.028c-1.894.128-2.325.157-3.4-.716l-2.736-2.17c-.28-.28-.14-.63.561-.7l19.209-1.4c1.611-.14 2.453.42 3.084.91l3.294 2.38c.14.07.49.49.07.49l-19.837 1.19-.245.016Zm-2.21 24.76V16.93c0-.91.28-1.33 1.122-1.4l22.782-1.33c.773-.07 1.122.42 1.122 1.33v20.716c0 .91-.14 1.682-1.402 1.751l-21.801 1.26c-1.262.07-1.823-.35-1.823-1.47ZM35.672 18.05c.14.63 0 1.26-.632 1.331l-1.05.21v15.397c-.912.49-1.753.77-2.454.77-1.122 0-1.403-.35-2.244-1.4l-6.87-10.778v10.428l2.174.49s0 1.26-1.754 1.26l-4.836.28c-.14-.28 0-.98.49-1.12l1.262-.349V20.781l-1.752-.14c-.14-.631.21-1.54 1.192-1.61l5.187-.35 7.15 10.918V19.94l-1.822-.209c-.14-.77.42-1.33 1.121-1.4l4.838-.281Z" clip-rule="evenodd"/></svg>
